!! 00000] TT[WS
!!!OTL: Mai luobe
!!!ARE: Asia, China,ÿShanxi Dingxiang
!! Ethnic Group: Han
!! WI, 58 (2)
!!!SCT: J0065
!!!YEM: Copyright 1995, estate of Helmut Schaffrath.
**kern
*ICvox
*Ivox
*M2/4
*k[b-]
*F:
{8dd
8ff
8g
8a
=1
8dd
8ff
8g
8a
=2
8cc
16g
16a
4cc
=3
8e
16e
16d
4c}
=4
{8cc
8cc
8dd
8ff
=5
8cc
8e
8g
16cc
16cc
=6
8a
16e
16e
16f
16g
16e
16d
=7
2c}
=8
{8f
8f
8f
8d
=9
4.cc
8a
=10
8dd
8ff
16cc
16dd
16cc
16a
=11
8g
8f
4g}
=12
{8cc
16g
16a
4cc
=13
8.cc
16ff
8dd
8cc
=14
8.a
16dd
8f
16f
16g
=15
8a
16cc
16a
8g
8a
=16
8.f
16g
8a
16e
16d
=17
2c}
==
!!!AGN: Xiaodiao. Maimai
!!!ONB: ESAC (Essen Associative Code) Database: CHINA
!!!AMT: simple duple
!!!AIN: vox
!!!EED: Helmut Schaffrath
!!!EEV: 1.0
*-
